img/comment-smily.svg

<svg width="24px" height="24px" viewBox="0 -0.5 25 25" fill="none" xmlns="http://www.w3.org/2000/svg">
<path fill-rule="evenodd" clip-rule="evenodd" d="M5.5 12.9543C5.51239 14.0398 5.95555 15.076 6.73197 15.8348C7.50838 16.5936 8.55445 17.0128 9.64 17.0003H11.646C12.1915 17.0007 12.7131 17.224 13.09 17.6183L14.159 18.7363C14.3281 18.9076 14.5588 19.004 14.7995 19.004C15.0402 19.004 15.2709 18.9076 15.44 18.7363L17.1 17.0003L17.645 16.3923C17.7454 16.2833 17.8548 16.1829 17.972 16.0923C18.9349 15.3354 19.4979 14.179 19.5 12.9543V8.04428C19.4731 5.7845 17.6198 3.97417 15.36 4.00028H9.64C7.38021 3.97417 5.5269 5.7845 5.5 8.04428V12.9543Z" stroke="#000000" stroke-width="1.5" stroke-linecap="round" stroke-linejoin="round"/>
<path d="M16.1957 12.3245C16.3504 11.9403 16.1644 11.5034 15.7802 11.3486C15.396 11.1939 14.959 11.3799 14.8043 11.7641L16.1957 12.3245ZM14.616 13.2503L15.0898 13.8317L15.0926 13.8294L14.616 13.2503ZM10.364 13.2193L9.87845 13.7909L9.88182 13.7938L10.364 13.2193ZM10.2002 11.7315C10.0517 11.3448 9.61791 11.1517 9.23121 11.3001C8.84451 11.4486 8.65137 11.8824 8.79982 12.2691L10.2002 11.7315ZM10.25 8.00031C10.25 7.58609 9.91421 7.25031 9.5 7.25031C9.08579 7.25031 8.75 7.58609 8.75 8.00031H10.25ZM8.75 9.00031C8.75 9.41452 9.08579 9.75031 9.5 9.75031C9.91421 9.75031 10.25 9.41452 10.25 9.00031H8.75ZM16.25 8.00031C16.25 7.58609 15.9142 7.25031 15.5 7.25031C15.0858 7.25031 14.75 7.58609 14.75 8.00031H16.25ZM14.75 9.00031C14.75 9.41452 15.0858 9.75031 15.5 9.75031C15.9142 9.75031 16.25 9.41452 16.25 9.00031H14.75ZM14.8043 11.7641C14.662 12.1173 14.4334 12.4292 14.1394 12.6712L15.0926 13.8294C15.5804 13.4279 15.9597 12.9105 16.1957 12.3245L14.8043 11.7641ZM14.1422 12.6689C13.1801 13.4528 11.7968 13.4427 10.8462 12.6448L9.88182 13.7938C11.3838 15.0545 13.5696 15.0704 15.0898 13.8317L14.1422 12.6689ZM10.8495 12.6477C10.5597 12.4015 10.3364 12.0865 10.2002 11.7315L8.79982 12.2691C9.02618 12.8587 9.39708 13.382 9.87846 13.7909L10.8495 12.6477ZM8.75 8.00031V9.00031H10.25V8.00031H8.75ZM14.75 8.00031V9.00031H16.25V8.00031H14.75Z" fill="#000000"/>
</svg>

<svg width="24" height="24" viewBox="0 -0.5 25 25" fill="none" xmlns="http://www.w3.org/2000/svg">
  <path clip-rule="evenodd" d="M5.5 12.954A4.093 4.093 0 0 0 9.64 17h2.006a2 2 0 0 1 1.444.618l1.069 1.118a.9.9 0 0 0 1.281 0L17.1 17l.545-.608c.1-.109.21-.21.327-.3a4 4 0 0 0 1.528-3.138v-4.91A4.093 4.093 0 0 0 15.36 4H9.64A4.093 4.093 0 0 0 5.5 8.044v4.91Z" stroke="#000" stroke-width="1.5" stroke-linecap="round" stroke-linejoin="round"/>
  <path d="M16.196 12.325a.75.75 0 0 0-1.392-.56l1.392.56Zm-1.58.925.474.582.003-.003-.477-.579Zm-4.252-.03-.486.57.004.004.482-.575Zm-.164-1.49a.75.75 0 0 0-1.4.538l1.4-.537ZM10.25 8a.75.75 0 1 0-1.5 0h1.5Zm-1.5 1a.75.75 0 0 0 1.5 0h-1.5Zm7.5-1a.75.75 0 0 0-1.5 0h1.5Zm-1.5 1a.75.75 0 0 0 1.5 0h-1.5Zm.054 2.763c-.142.353-.37.665-.665.907l.954 1.158a3.776 3.776 0 0 0 1.103-1.505l-1.392-.56Zm-.662.905a2.586 2.586 0 0 1-3.296-.024l-.964 1.149a4.086 4.086 0 0 0 5.208.038l-.948-1.163Zm-3.292-.021a2.268 2.268 0 0 1-.65-.916l-1.4.537a3.77 3.77 0 0 0 1.078 1.522l.972-1.143ZM8.75 8v1h1.5V8h-1.5Zm6 0v1h1.5V8h-1.5Z" fill="#000"/>
</svg>
